X:2
T:Don't Blame Me
C:Dorothy Fields & Jimmy Mchugh
L:1/4
M:C
I:linebreak $
K:C
"C" G2"Fm" _B2 |"Em" A2"Eb7" G2 |"Dm" (3F F F"Db7" E E |"C" D2"Am" C2 |$"Dø" (3F F F"Db7" E D |
"Eø" (3G G G"Eb7" F E ||1"Gbø" A2"Fø" B2 |"Em" G"Eb7" z"Dm" z"Db7" z :|2$"Dm" A2"G4" A2 |
"C6" c2"Gbø" z2 |"F" ^G A"Dm" ^G A |"Bø" ^A B"E7" ^A B |$"Bø" d2"Bb7" c c |
"Am" z2"AmM" z2 |"D7" d2"Am" c c |"Fo" z D"D7" ^F B |$"Dm" A2"Ebm" _A2 |
"Dm" G2"Db7" "_D.C. al 3rd end." z2 ||3"Dm" A2"G4" B2 |"C6" c4 |]

